X:1
T:B minor           Amos Pilsbury, 1799
T:Charles Wesley, 1745         866.
T:Rockingham
T:Transcribed from  The United States Sacred Harmony, 1799.
%%score [ 1 2 3 4 ]
L:1/8
Q:1/4=60
M:2/4
K:D
V:1 treble nm="Tr." snm="Tr."
V:2 treble nm="C." snm="C."
V:3 treble-8 nm="T." snm="T."
V:4 bass nm="B." snm="B."
V:1
 B2 d>c | B2 f2 | c>d cA | B2 B2 |: A3 B/c/ | d4 | c3 d/e/ | f4 | d>c BB | f>e de | c2 c2 | %11
w: 1.~Lamb of *|God, for|whom~ _ _ we|lan- guish,|Make our *|grief|our re- *|lief,|Ease~ _ _ us|by~ _ _ thine|an- guish,|
w: 2.~O our *|a- go-|ni- * * zing|Sa- vior,|By thy *|pain|let us *|gain|God's~ _ _ e-|ter- * * nal|fa- vor,|
w: 3.~Suf- fer *|sin no|more~ _ _ t'op-|press us,|Set us *|free,|all with *|me,|By~ _ _ thy|bonds~ _ _ re-|lease us,|
 f>d cB | e>d c2 |1 B2 B2 :|2 B2 B2- | B4 |] %16
w: Ease~ _ _ us|by~ _ thine|an- guish.|an- guish.||
w: God's~ _ _ e-|ter- * nal|fa- vor.|fa- vor.||
w: By~ _ _ thy|bonds~ _ re-|lease us.|–lease us.||
V:2
 F2 F2 | F2 D2 | E>F GF | F2 F2 |: F>E DE | F4 | G>F E A/G/ | F4 | D>E FB | A>G FG | A2 A2 | %11
w: 4.~Clear us|by thy|con- * * dem-|na- tion;|Slain~ _ _ for|all,|let~ _ _ thy~ _|fall|Be~ _ _ our|ex- * * al-|ta- tion,|
w: 5.~Thy de-|serts to|us~ _ _ make|o- ver;|Speak~ _ _ us|whole,|eve- * * ry~ _|soul|By~ _ _ thy|wounds~ _ _ re-|co- ver,|
w: 6.~Let us|through thy|curse~ _ _ in-|he- rit|Bles- * * sings'|store,|love~ _ _ and~ _|power,|Full- * * ness|of~ _ _ thy|Spi- rit,|
 A>F G F/E/ | F2 F2 |1 F2 F2 :|2 F2 F2- | F4 |] %16
w: Be~ _ _ our *|ex- al-|ta- tion.|–ta- tion.||
w: By~ _ _ thy *|wounds re-|co- ver.|–co- ver.||
w: Full- * * ness *|of thy|Spi- rit.|Spi- rit.||
V:3
 B2 f2 | dc B2 | e>f ed | c2 B2 |: d>c de | f4 | e>f ed |{d} c4 | f>g fe | dB/c/ de | f2 f2 | %11
w: 7.~The be-|ne- * fit|of~ _ _ thy|pas- sion,|Pre- * * sent|peace,|fu- * * ture|bliss,|All~ _ _ thy|great~ _ _ _ sal-|va- tion,|
w: 8.~Power to|walk * in|all~ _ _ well-|plea- sing|Bid~ _ _ us|take,|come~ _ _ and|make|This~ _ _ th'ac-|cep- * * * ted|sea- son,|
w: 9.~In thine|own * ap-|point- * * ments|bless us,|Meet~ _ _ us|here,|now~ _ _ ap-|pear,|Our~ _ _ al-|migh- * * * ty|Je- sus,|
 d>f e d/c/ | B2 A2 |1 B2 B2 :|2 B2 B2- | B4 |] %16
w: All~ _ _ thy *|great sal-|va- tion.|–va- tion.||
w: This~ _ _ th'ac- *|cep- ted|seas- son.|sea- son.||
w: Our~ _ _ al- *|migh- ty|Je- sus.|Je- sus.||
V:4
 B,,2 B,2 | F,2 D,2 | E,3 F, | [B,,F,]2 B,,2 |: D,3 A, | B,4 | E,3 B,, | F,4 | B,3 A, | %9
w: 10.~Let the|or- di-|nance be|sea- ling,|En- ter|now,|claim us|thou|For thy|
w: 11.~Fill the|heart of|each be-|lie- ver;|We are|thine,|love di-|vine,|Reign in|
 D,/E,/F,/G,/ A,B, | F,2 F,2 | D,F,/G,/ A,B, | E,2 F,2 |1 B,,2 B,,2 :|2 B,,2 B,,2- | B,,4 |] %16
w: con- * * * * stant|dwel- ling,|For~ _ _ _ thy|con- stant|dwel- ling.|dwel- ling.||
w: us~ _ _ _ _ for|ev- er,|Reign~ _ _ _ in|us for|ev- er.|ev- er.||

